packages/vibrant-icons/assets/icons/TextAlignRight/Fill.svg

<svg width="24" height="24" viewBox="0 0 24 24" fill="none" xmlns="http://www.w3.org/2000/svg">
<path d="M21.8499 15.6004V13.4004H2.1499V15.6004H21.8499ZM21.8499 10.6004V8.4004H10.1499V10.6004H21.8499ZM21.8499 5.60039V3.40039H2.1499V5.60039L21.8499 5.60039Z" fill="#0C0C0C"/>
<path d="M21.8499 18.4004V20.6004H10.1499V18.4004H21.8499Z" fill="#0C0C0C"/>
</svg>

<svg xmlns="http://www.w3.org/2000/svg" width="24" height="24" fill="none"><path fill="#0C0C0C" d="M21.85 15.6v-2.2H2.15v2.2zm0-5V8.4h-11.7v2.2zm0-5V3.4H2.15v2.2zm0 12.8v2.2h-11.7v-2.2z"/></svg>
